build/img/icons/icon-year.svg

<svg width="34" height="46" viewBox="0 0 34 46" fill="none" xmlns="http://www.w3.org/2000/svg">
<path d="M14.872 18.056C21.272 18.056 25.9653 19.272 28.952 21.704C31.9813 24.0933 33.496 27.3787 33.496 31.56C33.496 34.2053 32.856 36.5947 31.576 38.728C30.3387 40.8187 28.44 42.4827 25.88 43.72C23.3627 44.9147 20.248 45.512 16.536 45.512C13.3787 45.512 10.328 45.0427 7.384 44.104C4.44 43.1227 2.008 41.7787 0.0880001 40.072L3.032 35.016C4.568 36.4667 6.53067 37.64 8.92 38.536C11.3093 39.3893 13.8267 39.816 16.472 39.816C19.8427 39.816 22.4453 39.112 24.28 37.704C26.1573 36.2533 27.096 34.2907 27.096 31.816C27.096 29.128 26.072 27.1013 24.024 25.736C21.976 24.328 18.4773 23.624 13.528 23.624H3.352L5.72 0.199997H31V5.768H11.096L9.88 18.056H14.872Z" fill="#D9C09A"/>
</svg>

<svg width="34" height="46" fill="none" xmlns="http://www.w3.org/2000/svg"><path d="M14.872 18.056c6.4 0 11.093 1.216 14.08 3.648 3.03 2.39 4.544 5.675 4.544 9.856 0 2.645-.64 5.035-1.92 7.168-1.237 2.09-3.136 3.755-5.696 4.992-2.517 1.195-5.632 1.792-9.344 1.792-3.157 0-6.208-.47-9.152-1.408-2.944-.981-5.376-2.325-7.296-4.032l2.944-5.056c1.536 1.45 3.499 2.624 5.888 3.52 2.39.853 4.907 1.28 7.552 1.28 3.37 0 5.973-.704 7.808-2.112 1.877-1.45 2.816-3.413 2.816-5.888 0-2.688-1.024-4.715-3.072-6.08-2.048-1.408-5.547-2.112-10.496-2.112H3.352L5.72.2H31v5.568H11.096L9.88 18.056h4.992z" fill="#D9C09A"/></svg>
